X:1
T:Title
%%score 1 2
L:1/8
Q:1/4=89
M:6/8
K:E
V:1 treble nm="Grand Piano, Soprano"
V:2 bass nm="Choir Pad, Studio City, 98.98 D"
V:1
 [GB][GB][EG] [B,E][B,E][B,D] | [B,E][EG][DF]- [DF]2- [DF]/ z/ | [EG][FA][EG] [FA][Ac][GB]- | %3
w: By~Daniel~Brink~Towner,~1899 * * * * *|||
 [GB]/[FA]/ [EG]2- [EG]2- [EG]/ z/ | [GB][GB][EG] [B,E][B,E][B,D] | %5
w: ||
 [B,E][EG][DF]- [DF]2- [DF]/ z/ | [DF][EF][EF] [EF][EF][EG] | [E^A] [DB]2- [DB]2- [DB]/ z/ | %8
w: |||
 [AB][GB][=G^A] [^GB][=Ac][GB]- | [GB]/[EG]/[GB][FA]- [FA]2- [FA]/ z/ | %10
w: ||
 [FA][FA][^EG] [FA][Ad][Ac]- | [Ac]/[AB]/ [GB]2- [GB]2- [GB]/ z/ | [GB][Ge][EB] [EG][EA][EB] | %13
w: |||
 [Ec] [EB]2- [EB] [EG]2 | E[EF][^EG] [FA][=EG]E | [B,F] [B,E]2- [B,E]3- | [B,E]3 z3 |] %17
w: ||||
V:2
 E,E,E, [E,G,][E,G,][F,A,] | [E,G,][B,,B,][B,,B,]- [B,,B,]2- [B,,B,]/ z/ | %2
 [B,,B,][B,,B,][B,,B,] [B,,B,][B,,D,][B,,E,]- | [B,,E,]/[B,,B,]/ [E,B,]2- [E,B,]2- [E,B,]/ z/ | %4
 E,E,E, [E,G,][E,G,][F,A,] | [E,G,][B,,B,][B,,B,]- [B,,B,]2- [B,,B,]/ z/ | %6
 [B,,B,][F,^A,][F,A,] [F,A,][F,A,][F,A,] | F, [B,,F,]2- [B,,F,]2- [B,,F,]/ z/ | %8
 [B,,F,]E,E, E,E,E,- | E,/E,/[B,,D,][B,,D,]- [B,,D,]2- [B,,D,]/ z/ | %10
 [B,,D,][B,,F,][B,,B,] [B,,F,][B,,F,][B,,F,]- | [B,,F,]/[C,E,]/ E,2- E,2- E,/ z/ | %12
 E,E,[E,G,] [=D,B,][C,A,][B,,G,] | [A,,A,] [E,G,]2- [E,G,] [E,B,]2 | %14
 [G,B,][A,C][G,C] [F,C]B,[B,,G,] | [B,,A,] [E,G,]2- [E,G,]3- | [E,G,]3 z3 |] %17

